X: 15
T:Slash Away the Pressing Gang (#65)
M:4/4
L:1/8
S:Capt. F. O'Neill
K:G
d>efd cAAc|BG ~G2 cA A2|1d>efd cAAc|BGAF D3 D:|2defg abag|fde^c d3 d|
|:A>BAG AB c2|G>AGF ECEG|1A>BAG ABcd|cAGE D3 D:|
2A>BAG Adde|"tr"fde^c d3 d||

